svg/bag_personal_tag.svg

<svg xmlns="http://www.w3.org/2000/svg" viewBox="0 0 24 24"><path d="M14 5V4c0-1.1-.9-2-2-2H8c-1.1 0-2 .9-2 2v1C3.8 5 2 6.8 2 9v11c0 1.1.9 2 2 2h11.2l-2.4-2.4c-.6-.5-.9-1.3-.9-2V16H7v2H6v-2H4v-1h8v-.2c0-1.5 1.2-2.8 2.8-2.8H18V9c0-2.2-1.8-4-4-4m-4 8-2-2 2-2 2 2zm2-8H8V4h4zm9.8 12.8-3.6-3.6c-.2-.1-.4-.2-.6-.2h-2.8c-.4 0-.8.4-.8.8v2.8c0 .2.1.4.2.6l3.6 3.6c.1.1.3.2.6.2.2 0 .4-.1.6-.2l2.8-2.8c.1-.1.2-.3.2-.6 0-.2-.1-.4-.2-.6M15.4 16c-.3 0-.6-.3-.6-.6s.3-.6.6-.6.6.3.6.6-.3.6-.6.6"/></svg>

<svg xmlns="http://www.w3.org/2000/svg" id="mdi-bag-personal-tag" viewBox="0 0 24 24"><path d="M14 5V4C14 2.9 13.1 2 12 2H8C6.9 2 6 2.9 6 4V5C3.8 5 2 6.8 2 9V20C2 21.1 2.9 22 4 22H15.2L12.8 19.6C12.2 19.1 11.9 18.3 11.9 17.6V16H7V18H6V16H4V15H12V14.8C12 13.3 13.2 12 14.8 12H18V9C18 6.8 16.2 5 14 5M10 13L8 11L10 9L12 11L10 13M12 5H8V4H12V5M21.8 17.8L18.2 14.2C18 14.1 17.8 14 17.6 14H14.8C14.4 14 14 14.4 14 14.8V17.6C14 17.8 14.1 18 14.2 18.2L17.8 21.8C17.9 21.9 18.1 22 18.4 22C18.6 22 18.8 21.9 19 21.8L21.8 19C21.9 18.9 22 18.7 22 18.4C22 18.2 21.9 18 21.8 17.8M15.4 16C15.1 16 14.8 15.7 14.8 15.4C14.8 15.1 15.1 14.8 15.4 14.8C15.7 14.8 16 15.1 16 15.4C16 15.7 15.7 16 15.4 16Z" /></svg>
